X:1
T: The Albemarle Hornpipe
C:
R:Reel
I:speed 232
Q:232
K:A
M:4/4
L:1/8
|:((3EFG)|AG BG A2 Bc|dB GB A2 Bc|dc fe dc BA|BA BG E2 FG|
AG BG A2 Bc|dB GB A2 cd|((3eag) ((3fed) ((3cde) ((3cBA)|((3GAB) ((3EFG) A2:|
|:cd|ec Aa fd Ba|gb eg a2 gf|e^d fe =dc BA|GA BG E2 FG|
AE AE cA EA|dB GB ec Ac|ea gf ((3efe) ((3dcB)|A2a2 A2:|
